src/img/new-site/icon_gh.svg

<?xml version="1.0" encoding="UTF-8"?>
<svg width="20px" height="20px" viewBox="0 0 20 20" version="1.1" xmlns="http://www.w3.org/2000/svg" xmlns:xlink="http://www.w3.org/1999/xlink">
    <!-- Generator: Sketch 41.2 (35397) - http://www.bohemiancoding.com/sketch -->
    <title>icon_github</title>
    <desc>Created with Sketch.</desc>
    <defs></defs>
    <g id="Page-1" stroke="none" stroke-width="1" fill="none" fill-rule="evenodd">
        <g id="page" transform="translate(-658.000000, -815.000000)" fill="#FFFFFF">
            <g id="footer" transform="translate(538.000000, 805.000000)">
                <g id="Group-2">
                    <g id="Group-24">
                        <g id="icon_github" transform="translate(120.000000, 10.000000)">
                            <path d="M1.66666667,10.0413934 C1.66666667,13.723213 4.05419647,16.8463905 7.3656343,17.9483273 C7.78256955,18.0250639 7.93450791,17.7677406 7.93450791,17.5467394 C7.93450791,17.3492707 7.92734584,16.8249042 7.92325322,16.1296711 C5.60529789,16.6330629 5.11623029,15.012387 5.11623029,15.012387 C4.73715174,14.0495991 4.19078752,13.793299 4.19078752,13.793299 C3.43416516,13.2766063 4.24808414,13.2868378 4.24808414,13.2868378 C5.08451252,13.3456692 5.52446873,14.1457756 5.52446873,14.1457756 C6.26779009,15.4190907 7.47511178,15.0512668 7.94985522,14.8379392 C8.02556862,14.2997602 8.24094253,13.932448 8.47882583,13.7242361 C6.62845187,13.513978 4.68292458,12.7987934 4.68292458,9.6055298 C4.68292458,8.69594592 5.00777597,7.9516014 5.54083919,7.36942679 C5.45489426,7.15865707 5.16892272,6.310974 5.62269151,5.1640184 C5.62269151,5.1640184 6.32201725,4.93994768 7.91404483,6.01835196 C8.57858334,5.8331611 9.29172166,5.74107724 10.0002558,5.7374962 C10.7082783,5.74107724 11.4209051,5.8331611 12.0864667,6.01835196 C13.6774712,4.93994768 14.3757738,5.1640184 14.3757738,5.1640184 C14.8305657,6.310974 14.5445942,7.15865707 14.4591608,7.36942679 C14.9932472,7.9516014 15.3155407,8.69594592 15.3155407,9.6055298 C15.3155407,12.8069786 13.3669439,13.5114201 11.5109426,13.7175856 C11.8097036,13.9749088 12.0762352,14.4834164 12.0762352,15.2610134 C12.0762352,16.3747165 12.0660037,17.2735573 12.0660037,17.5467394 C12.0660037,17.7697869 12.2164073,18.0291565 12.6389699,17.9478157 C15.9478498,16.843321 18.3333333,13.7221898 18.3333333,10.0413934 C18.3333333,5.43873524 14.6018908,1.70780427 9.99923263,1.70780427 C5.39810921,1.70780427 1.66666667,5.43873524 1.66666667,10.0413934 Z" id="Fill-3"></path>
                        </g>
                    </g>
                </g>
            </g>
        </g>
    </g>
</svg>

<svg width="20" height="20" viewBox="0 0 20 20" xmlns="http://www.w3.org/2000/svg"><title>icon_github</title><path d="M1.667 10.041a8.334 8.334 0 0 0 5.699 7.907c.417.077.569-.18.569-.401 0-.198-.008-.722-.012-1.417-2.318.503-2.807-1.118-2.807-1.118-.379-.962-.925-1.219-.925-1.219-.757-.516.057-.506.057-.506.837.059 1.276.859 1.276.859.744 1.273 1.951.905 2.426.692.076-.538.29-.906.529-1.114-1.85-.21-3.796-.925-3.796-4.118 0-.91.325-1.654.858-2.237-.086-.21-.372-1.058.082-2.205 0 0 .699-.224 2.291.854A7.982 7.982 0 0 1 10 5.738a7.99 7.99 0 0 1 2.086.28c1.591-1.078 2.29-.854 2.29-.854.455 1.147.169 1.995.083 2.205.534.583.857 1.327.857 2.237 0 3.201-1.95 3.905-3.805 4.112.299.257.565.765.565 1.543 0 1.114-.01 2.013-.01 2.286 0 .223.15.482.573.4a8.334 8.334 0 1 0-10.972-7.906z" fill="#FFF" fill-rule="evenodd"/></svg>
